X:1
T:G Major Oliver Holden, 1796
T:Joel Barlow, 1786 (Psalm 43)   86. 86. (C. M.)
T:Hopkinton No copyright. Transcribed from The Union Harmony, 1796.
%%score [ 1 2 3 4 ]
L:1/8
M:4/4
K:G
V:1 treble nm="Tr." snm="Tr."
V:2 treble nm="C." snm="C."
V:3 treble-8 nm="T." snm="T."
V:4 bass nm="B." snm="B."
V:1
 G4 B2 d2 | c2 B2 A2 G2 | B6 d2 | (A2 G2) (A2 B2) | (c2 B2) (c2 d2) | (e4 d4) | d4 B2 d2 | %7
 B2 G2 B2 d2 | c6 B2 | d6 B2 | A6 A2 | G6 G2 | B2 d2 B2 G2 | B2 d2 B3 A | !fermata!B4 (c2 de) | %15
 d4 c4 | B8 |] %17
V:2
 D4 D2 G2 | F2 G2 F2 G2 | G6 F2 | F4 F4 | F4 F4 | G8 | D4 B,2 D2 | B2 G2 B2 D2 | E6 G2 | F6 D2 | %10
w: 1.~Now to Thy|al- tar, O my|God, My|joy- ful|feet shall|rise,|And my tri-|um- phant songs shall|praise The|God that|
 F6 F2 | G6 G2 | B2 d2 B2 G2 | B2 D2 G3 F | !fermata!E4 E4 | F4 D4 | D8 |] %17
w: rules the|skies. And|my tr- um- phant|songs shall praise The|God that|rules the|skies.|
V:3
 B4 G2 B2 | A2 G2 A2 B2 | G6 A2 | (D2 E2) (F2 G2) | (A2 G2) (A2 B2) | (c4 B4) | d4 B2 d2 | %7
 B2 G2 B2 d2 | c6 B2 | A6 G2 | c6 dc | B6 G2 | B2 d2 B2 G2 | B2 d2 e3 f | !fermata!g4 (A2 Bc) | %15
 B4 A4 | G8 |] %17
V:4
 G,4 G,2 G,2 | D,2 D,2 D,2 D,2 | G,6 D,2 | D,4 D,4 | D,4 D,4 | G,8 | D,4 B,,2 D,2 | %7
 B,,2 G,,2 B,,2 D,2 | C,6 G,,2 | D,6 G,2 | F,6 D,2 | G,6 G,2 | B,2 D2 B,2 G,2 | B,2 D2 G,3 F, | %14
 !fermata!E,4 C,4 | D,4 D,4 | G,,8 |] %17

